src/standard/venn-diagram.svg

<svg xmlns="http://www.w3.org/2000/svg" viewBox="0 0 36 36">
  <path d="M23.38 8.76A9.13 9.13 0 0 0 18 10.51C12.1 6.09 3.27 10.58 3.38 18 3.27 25.42 12.1 29.91 18 25.49c5.94 4.43 14.72-.08 14.62-7.49a9.25 9.25 0 0 0-9.24-9.24ZM4.62 18a8 8 0 0 1 8-8c10.58.4 10.58 15.58 0 16a8 8 0 0 1-8-8Zm18.76 8A7.94 7.94 0 0 1 19 24.67c3.76-3.29 3.76-10.05 0-13.34 5.13-3.54 12.5.44 12.38 6.67a8 8 0 0 1-8 8Z"/>
  <path d="M15.39 18a.63.63 0 0 0-1.25 0 .63.63 0 0 0 1.25 0ZM15 16.06a.62.62 0 0 0 .36-1.19.62.62 0 0 0-.36 1.19Zm1.61-3.41a.61.61 0 0 0-.86.16.64.64 0 0 0 .52 1 .63.63 0 0 0 .34-1.16Zm-.71 9.67a.63.63 0 0 0 .71 1 .63.63 0 0 0-.71-1Zm-.15-1.97a.62.62 0 0 0-1.19.36.62.62 0 0 0 1.18-.36Z"/>
</svg>

<svg id="a88662b4-150c-43c5-9cdc-65e87985cc30" data-name="Icon" xmlns="http://www.w3.org/2000/svg" viewBox="0 0 36 36">
  <title>Venn diagram icon - Black</title>
<desc>combine, compare, contrast, graph, chart, circle, merge, overlap, comparison, pros, cons, diagrams and graphs</desc>
<metadata><?xpacket begin="﻿" id="W5M0MpCehiHzreSzNTczkc9d"?>
<x:xmpmeta xmlns:x="adobe:ns:meta/" x:xmptk="Adobe XMP Core 8.0-c001 1.000000, 0000/00/00-00:00:00        ">
   <rdf:RDF xmlns:rdf="http://www.w3.org/1999/02/22-rdf-syntax-ns#">
      <rdf:Description rdf:about=""
            xmlns:xmp="http://ns.adobe.com/xap/1.0/"
            xmlns:dc="http://purl.org/dc/elements/1.1/"
            xmlns:cq="http://www.day.com/jcr/cq/1.0"
            xmlns:tiff="http://ns.adobe.com/tiff/1.0/">
         <xmp:rhcc-effective-on>2023-12-08T17:35:16.752Z</xmp:rhcc-effective-on>
         <xmp:rhcc-metadata-complete-moderator>pending</xmp:rhcc-metadata-complete-moderator>
         <xmp:rhcc-translation-id>TRA06ab60c4-3b4c-49fc-a237-52fa530a6a1b</xmp:rhcc-translation-id>
         <xmp:brand-content-type>Icon</xmp:brand-content-type>
         <xmp:CreateDate>2023-12-08T17:35:16.752Z</xmp:CreateDate>
         <xmp:rhcc-effective-on-set-on-upload>true</xmp:rhcc-effective-on-set-on-upload>
         <xmp:rhcc-metadata-complete-uploader>pending</xmp:rhcc-metadata-complete-uploader>
         <xmp:rhcc-file-last-modified>2023-12-08T17:35:25.973Z</xmp:rhcc-file-last-modified>
         <xmp:rhcc-audience>rhcc-audience:internal</xmp:rhcc-audience>
         <xmp:rhcc-rights-restricted>no</xmp:rhcc-rights-restricted>
         <xmp:brand-content-subtype>Icon</xmp:brand-content-subtype>
         <xmp:rhcc-derivative-id>DER06ab60c4-3b4c-49fc-a237-52fa530a6a1b</xmp:rhcc-derivative-id>
         <xmp:brand-logo-color>Black</xmp:brand-logo-color>
         <xmp:rhcc-notify-portal-subscribers-on-change>yes</xmp:rhcc-notify-portal-subscribers-on-change>
         <dc:format>image/svg+xml</dc:format>
         <dc:modified>2024-02-09T20:35:51.007Z</dc:modified>
         <dc:title>
            <rdf:Alt>
               <rdf:li xml:lang="x-default">Venn diagram icon - Black</rdf:li>
            </rdf:Alt>
         </dc:title>
         <dc:description>
            <rdf:Alt>
               <rdf:li xml:lang="x-default">combine, compare, contrast, graph, chart, circle, merge, overlap, comparison, pros, cons, diagrams and graphs</rdf:li>
            </rdf:Alt>
         </dc:description>
         <cq:lastReplicationAction_scene7>Activate</cq:lastReplicationAction_scene7>
         <cq:lastReplicationAction_publish>Activate</cq:lastReplicationAction_publish>
         <cq:lastReplicated_publish>2024-02-09T22:23:24.923Z</cq:lastReplicated_publish>
         <cq:lastReplicatedBy>workflow-process-service</cq:lastReplicatedBy>
         <cq:lastReplicationAction>Activate</cq:lastReplicationAction>
         <cq:lastReplicatedBy_publish>workflow-process-service</cq:lastReplicatedBy_publish>
         <cq:isDelivered>true</cq:isDelivered>
         <cq:lastReplicated>2024-02-09T22:23:24.923Z</cq:lastReplicated>
         <cq:lastReplicatedBy_scene7>workflow-process-service</cq:lastReplicatedBy_scene7>
         <cq:lastReplicated_scene7>2024-02-09T22:23:24.923Z</cq:lastReplicated_scene7>
         <tiff:ImageLength>36</tiff:ImageLength>
         <tiff:ImageWidth>36</tiff:ImageWidth>
      </rdf:Description>
   </rdf:RDF>
</x:xmpmeta>
                                                                                                    
                                                                                                    
                                                                                                    
                                                                                                    
                                                                                                    
                                                                                                    
                                                                                                    
                                                                                                    
                                                                                                    
                                                                                                    
                                 
<?xpacket end="w"?></metadata>
<g>
    <path d="M23.38,8.76A9.13,9.13,0,0,0,18,10.51C12.1,6.09,3.27,10.58,3.38,18,3.27,25.42,12.1,29.91,18,25.49c5.94,4.43,14.72-.08,14.62-7.49A9.25,9.25,0,0,0,23.38,8.76ZM4.62,18a8,8,0,0,1,8-8c10.58.4,10.58,15.58,0,16A8,8,0,0,1,4.62,18Zm18.76,8A7.94,7.94,0,0,1,19,24.67c3.76-3.29,3.76-10.05,0-13.34,5.13-3.54,12.5.44,12.38,6.67A8,8,0,0,1,23.38,26Z"/>
    <path d="M15.39,18a.63.63,0,0,0-1.25,0A.63.63,0,0,0,15.39,18Z"/>
    <path d="M15,16.06a.62.62,0,0,0,.36-1.19A.62.62,0,0,0,15,16.06Z"/>
    <path d="M16.61,12.65a.61.61,0,0,0-.86.16h0a.64.64,0,0,0,.52,1A.63.63,0,0,0,16.61,12.65Z"/>
    <path d="M15.9,22.32a.63.63,0,0,0,.71,1A.63.63,0,0,0,15.9,22.32Z"/>
    <path d="M15.75,20.35h0a.62.62,0,0,0-1.19.36A.62.62,0,0,0,15.74,20.35Z"/>
  </g>
</svg>
